images/6604235.svg

<?xml version="1.0" encoding="UTF-8"?>
<svg xmlns="http://www.w3.org/2000/svg" xmlns:xlink="http://www.w3.org/1999/xlink" width="300pt" height="300pt" viewBox="0 0 300 300" version="1.1">
<defs>
<g>
<symbol overflow="visible" id="glyph0-0">
<path style="stroke:none;" d="M 0.453125 1.59375 L 0.453125 -6.34375 L 4.953125 -6.34375 L 4.953125 1.59375 Z M 0.953125 1.09375 L 4.453125 1.09375 L 4.453125 -5.84375 L 0.953125 -5.84375 Z M 0.953125 1.09375 "/>
</symbol>
<symbol overflow="visible" id="glyph0-1">
<path style="stroke:none;" d="M 3.546875 -5.953125 C 2.898438 -5.953125 2.382812 -5.710938 2 -5.234375 C 1.625 -4.753906 1.4375 -4.101562 1.4375 -3.28125 C 1.4375 -2.445312 1.625 -1.789062 2 -1.3125 C 2.382812 -0.832031 2.898438 -0.59375 3.546875 -0.59375 C 4.191406 -0.59375 4.703125 -0.832031 5.078125 -1.3125 C 5.453125 -1.789062 5.640625 -2.445312 5.640625 -3.28125 C 5.640625 -4.101562 5.453125 -4.753906 5.078125 -5.234375 C 4.703125 -5.710938 4.191406 -5.953125 3.546875 -5.953125 Z M 3.546875 -6.6875 C 4.460938 -6.6875 5.195312 -6.375 5.75 -5.75 C 6.300781 -5.132812 6.578125 -4.3125 6.578125 -3.28125 C 6.578125 -2.238281 6.300781 -1.410156 5.75 -0.796875 C 5.195312 -0.179688 4.460938 0.125 3.546875 0.125 C 2.617188 0.125 1.878906 -0.179688 1.328125 -0.796875 C 0.773438 -1.410156 0.5 -2.238281 0.5 -3.28125 C 0.5 -4.3125 0.773438 -5.132812 1.328125 -5.75 C 1.878906 -6.375 2.617188 -6.6875 3.546875 -6.6875 Z M 3.546875 -6.6875 "/>
</symbol>
</g>
</defs>
<g id="surface51581">
<rect x="0" y="0" width="300" height="300" style="fill:rgb(100%,100%,100%);fill-opacity:1;stroke:none;"/>
<path style="fill:none;stroke-width:1.2;stroke-linecap:butt;stroke-linejoin:miter;stroke:rgb(0%,0%,0%);stroke-opacity:1;stroke-miterlimit:10;" d="M 35.25 138.207031 L 57.121094 137.898438 "/>
<path style="fill:none;stroke-width:1.2;stroke-linecap:butt;stroke-linejoin:miter;stroke:rgb(0%,0%,0%);stroke-opacity:1;stroke-miterlimit:10;" d="M 59.367188 139.15625 L 64.703125 129.609375 "/>
<path style="fill:none;stroke-width:1.2;stroke-linecap:butt;stroke-linejoin:miter;stroke:rgb(100%,0%,0%);stroke-opacity:1;stroke-miterlimit:10;" d="M 64.703125 129.609375 L 70.039062 120.0625 "/>
<path style="fill:none;stroke-width:1.2;stroke-linecap:butt;stroke-linejoin:miter;stroke:rgb(0%,0%,0%);stroke-opacity:1;stroke-miterlimit:10;" d="M 54.875 136.644531 L 60.210938 127.097656 "/>
<path style="fill:none;stroke-width:1.2;stroke-linecap:butt;stroke-linejoin:miter;stroke:rgb(100%,0%,0%);stroke-opacity:1;stroke-miterlimit:10;" d="M 60.210938 127.097656 L 65.542969 117.550781 "/>
<path style="fill:none;stroke-width:1.2;stroke-linecap:butt;stroke-linejoin:miter;stroke:rgb(0%,0%,0%);stroke-opacity:1;stroke-miterlimit:10;" d="M 57.121094 137.898438 L 62.722656 147.292969 "/>
<path style="fill:none;stroke-width:1.2;stroke-linecap:butt;stroke-linejoin:miter;stroke:rgb(100%,0%,0%);stroke-opacity:1;stroke-miterlimit:10;" d="M 62.722656 147.292969 L 68.324219 156.6875 "/>
<path style=" stroke:none;fill-rule:nonzero;fill:rgb(100%,100%,100%);fill-opacity:1;" d="M 63.792969 113.304688 L 71.792969 113.304688 L 71.792969 124.304688 L 63.792969 124.304688 Z M 63.792969 113.304688 "/>
<g style="fill:rgb(100%,0%,0%);fill-opacity:1;">
  <use xlink:href="#glyph0-1" x="63.792969" y="121.967773"/>
</g>
<path style=" stroke:none;fill-rule:nonzero;fill:rgb(0%,0%,0%);fill-opacity:1;" d="M 90.195312 156.382812 L 68.269531 152.828125 L 68.375 160.546875 Z M 90.195312 156.382812 "/>
<path style=" stroke:none;fill-rule:nonzero;fill:rgb(100%,100%,100%);fill-opacity:1;" d="M 64.324219 151.1875 L 72.324219 151.1875 L 72.324219 162.1875 L 64.324219 162.1875 Z M 64.324219 151.1875 "/>
<g style="fill:rgb(100%,0%,0%);fill-opacity:1;">
  <use xlink:href="#glyph0-1" x="64.324219" y="159.850586"/>
</g>
<path style="fill:none;stroke-width:1.2;stroke-linecap:butt;stroke-linejoin:miter;stroke:rgb(0%,0%,0%);stroke-opacity:1;stroke-miterlimit:10;" d="M 90.195312 156.382812 L 100.863281 137.285156 "/>
<path style="fill:none;stroke-width:1.2;stroke-linecap:butt;stroke-linejoin:miter;stroke:rgb(0%,0%,0%);stroke-opacity:1;stroke-miterlimit:10;" d="M 101.394531 175.167969 L 90.195312 156.382812 "/>
<path style="fill:none;stroke-width:1.2;stroke-linecap:butt;stroke-linejoin:miter;stroke:rgb(0%,0%,0%);stroke-opacity:1;stroke-miterlimit:10;" d="M 100.863281 137.285156 L 122.734375 136.980469 "/>
<path style=" stroke:none;fill-rule:nonzero;fill:rgb(0%,0%,0%);fill-opacity:1;" d="M 133.9375 155.765625 L 126.050781 135.003906 L 119.417969 138.957031 Z M 133.9375 155.765625 "/>
<path style="fill:none;stroke-width:1.2;stroke-linecap:butt;stroke-linejoin:miter;stroke:rgb(0%,0%,0%);stroke-opacity:1;stroke-miterlimit:10;" d="M 133.9375 155.765625 L 155.808594 155.460938 "/>
<path style="fill:none;stroke-width:1.2;stroke-linecap:butt;stroke-linejoin:miter;stroke:rgb(0%,0%,0%);stroke-opacity:1;stroke-miterlimit:10;" d="M 123.265625 174.863281 L 133.9375 155.765625 "/>
<path style=" stroke:none;fill-rule:nonzero;fill:rgb(0%,0%,0%);fill-opacity:1;" d="M 155.808594 155.460938 L 169.847656 138.25 L 163.109375 134.484375 Z M 155.808594 155.460938 "/>
<path style="fill:none;stroke-width:1.2;stroke-linecap:butt;stroke-linejoin:miter;stroke:rgb(0%,0%,0%);stroke-opacity:1;stroke-miterlimit:10;" d="M 167.007812 174.246094 L 155.808594 155.460938 "/>
<path style="fill:none;stroke-width:1.2;stroke-linecap:butt;stroke-linejoin:miter;stroke:rgb(0%,0%,0%);stroke-opacity:1;stroke-miterlimit:10;" d="M 166.476562 136.367188 L 188.347656 136.058594 "/>
<path style="fill:none;stroke-width:1.2;stroke-linecap:butt;stroke-linejoin:miter;stroke:rgb(0%,0%,0%);stroke-opacity:1;stroke-miterlimit:10;" d="M 188.347656 136.058594 L 199.550781 154.847656 "/>
<path style="fill:none;stroke-width:1.2;stroke-linecap:butt;stroke-linejoin:miter;stroke:rgb(0%,0%,0%);stroke-opacity:1;stroke-miterlimit:10;" d="M 199.550781 154.847656 L 188.878906 173.941406 "/>
<path style="fill:none;stroke-width:1;stroke-linecap:butt;stroke-linejoin:miter;stroke:rgb(0%,0%,0%);stroke-opacity:1;stroke-miterlimit:10;" d="M 199.550781 154.847656 L 199.550781 154.847656 M 201.105469 152.28125 L 200.132812 151.902344 M 202.660156 149.714844 L 200.714844 148.960938 M 204.210938 147.148438 L 201.296875 146.019531 M 205.765625 144.582031 L 201.878906 143.074219 M 207.320312 142.015625 L 202.460938 140.132812 M 208.875 139.449219 L 203.042969 137.1875 M 210.429688 136.882812 L 203.625 134.246094 M 211.058594 135.847656 L 203.859375 133.058594 "/>
<path style="fill:none;stroke-width:1.2;stroke-linecap:butt;stroke-linejoin:miter;stroke:rgb(0%,0%,0%);stroke-opacity:1;stroke-miterlimit:10;" d="M 221.007812 159.09375 L 199.550781 154.847656 "/>
<path style="fill:none;stroke-width:1.2;stroke-linecap:butt;stroke-linejoin:miter;stroke:rgb(0%,0%,0%);stroke-opacity:1;stroke-miterlimit:10;" d="M 188.878906 173.941406 L 167.007812 174.246094 "/>
<path style="fill:none;stroke-width:1;stroke-linecap:butt;stroke-linejoin:miter;stroke:rgb(0%,0%,0%);stroke-opacity:1;stroke-miterlimit:10;" d="M 188.878906 173.941406 L 188.878906 173.941406 M 190.503906 176.464844 L 191.269531 175.753906 M 192.128906 178.984375 L 193.660156 177.566406 M 193.753906 181.507812 L 196.050781 179.382812 M 195.378906 184.027344 L 198.441406 181.195312 M 197.003906 186.550781 L 200.832031 183.007812 M 198.628906 189.070312 L 203.21875 184.820312 M 200.253906 191.59375 L 205.609375 186.632812 M 200.910156 192.613281 L 206.574219 187.367188 "/>
<path style="fill:none;stroke-width:1;stroke-linecap:butt;stroke-linejoin:miter;stroke:rgb(0%,0%,0%);stroke-opacity:1;stroke-miterlimit:10;" d="M 167.007812 174.246094 L 167.007812 174.246094 M 165.113281 176.574219 L 166.023438 177.082031 M 163.214844 178.898438 L 165.035156 179.914062 M 161.320312 181.222656 L 164.050781 182.746094 M 159.425781 183.546875 L 163.066406 185.582031 M 157.527344 185.871094 L 162.078125 188.414062 M 155.632812 188.195312 L 161.09375 191.246094 M 153.734375 190.519531 L 160.105469 194.082031 M 152.96875 191.460938 L 159.707031 195.226562 "/>
<path style="fill:none;stroke-width:1.2;stroke-linecap:butt;stroke-linejoin:miter;stroke:rgb(0%,0%,0%);stroke-opacity:1;stroke-miterlimit:10;" d="M 156.339844 193.34375 L 134.46875 193.648438 "/>
<path style="fill:none;stroke-width:1.2;stroke-linecap:butt;stroke-linejoin:miter;stroke:rgb(0%,0%,0%);stroke-opacity:1;stroke-miterlimit:10;" d="M 134.46875 193.648438 L 123.265625 174.863281 "/>
<path style="fill:none;stroke-width:1.2;stroke-linecap:butt;stroke-linejoin:miter;stroke:rgb(0%,0%,0%);stroke-opacity:1;stroke-miterlimit:10;" d="M 123.265625 174.863281 L 101.394531 175.167969 "/>
<path style="fill:none;stroke-width:1.2;stroke-linecap:butt;stroke-linejoin:miter;stroke:rgb(0%,0%,0%);stroke-opacity:1;stroke-miterlimit:10;" d="M 121.007812 169.746094 L 103.511719 169.992188 "/>
<path style="fill:none;stroke-width:1.2;stroke-linecap:butt;stroke-linejoin:miter;stroke:rgb(0%,0%,0%);stroke-opacity:1;stroke-miterlimit:10;" d="M 203.742188 189.988281 L 223.597656 180.8125 "/>
<path style="fill:none;stroke-width:1.2;stroke-linecap:butt;stroke-linejoin:miter;stroke:rgb(0%,0%,0%);stroke-opacity:1;stroke-miterlimit:10;" d="M 223.597656 180.8125 L 221.007812 159.09375 "/>
<path style=" stroke:none;fill-rule:nonzero;fill:rgb(0%,0%,0%);fill-opacity:1;" d="M 221.007812 159.09375 L 242.933594 162.648438 L 242.824219 154.925781 Z M 221.007812 159.09375 "/>
<path style="fill:none;stroke-width:1.2;stroke-linecap:butt;stroke-linejoin:miter;stroke:rgb(0%,0%,0%);stroke-opacity:1;stroke-miterlimit:10;" d="M 221.007812 159.09375 L 221.996094 148.203125 "/>
<path style="fill:none;stroke-width:1.2;stroke-linecap:butt;stroke-linejoin:miter;stroke:rgb(100%,0%,0%);stroke-opacity:1;stroke-miterlimit:10;" d="M 221.996094 148.203125 L 222.988281 137.308594 "/>
<path style="fill:none;stroke-width:1.2;stroke-linecap:butt;stroke-linejoin:miter;stroke:rgb(0%,0%,0%);stroke-opacity:1;stroke-miterlimit:10;" d="M 242.878906 158.785156 L 264.75 158.480469 "/>
<path style="fill:none;stroke-width:1.2;stroke-linecap:butt;stroke-linejoin:miter;stroke:rgb(0%,0%,0%);stroke-opacity:1;stroke-miterlimit:10;" d="M 245.136719 163.902344 L 262.636719 163.65625 "/>
<path style="fill:none;stroke-width:1.2;stroke-linecap:butt;stroke-linejoin:miter;stroke:rgb(0%,0%,0%);stroke-opacity:1;stroke-miterlimit:10;" d="M 244.992188 153.609375 L 262.492188 153.363281 "/>
<path style="fill:none;stroke-width:1.2;stroke-linecap:butt;stroke-linejoin:miter;stroke:rgb(100%,0%,0%);stroke-opacity:1;stroke-miterlimit:10;" d="M 222.988281 137.308594 L 232.917969 132.722656 "/>
<path style="fill:none;stroke-width:1.2;stroke-linecap:butt;stroke-linejoin:miter;stroke:rgb(0%,0%,0%);stroke-opacity:1;stroke-miterlimit:10;" d="M 232.917969 132.722656 L 242.84375 128.132812 "/>
<path style=" stroke:none;fill-rule:nonzero;fill:rgb(100%,100%,100%);fill-opacity:1;" d="M 218.988281 131.808594 L 226.988281 131.808594 L 226.988281 142.808594 L 218.988281 142.808594 Z M 218.988281 131.808594 "/>
<g style="fill:rgb(100%,0%,0%);fill-opacity:1;">
  <use xlink:href="#glyph0-1" x="218.988281" y="140.47168"/>
</g>
<path style="fill:none;stroke-width:1.2;stroke-linecap:butt;stroke-linejoin:miter;stroke:rgb(0%,0%,0%);stroke-opacity:1;stroke-miterlimit:10;" d="M 241.359375 130.238281 L 250.296875 136.539062 "/>
<path style="fill:none;stroke-width:1.2;stroke-linecap:butt;stroke-linejoin:miter;stroke:rgb(100%,0%,0%);stroke-opacity:1;stroke-miterlimit:10;" d="M 250.296875 136.539062 L 259.234375 142.84375 "/>
<path style="fill:none;stroke-width:1.2;stroke-linecap:butt;stroke-linejoin:miter;stroke:rgb(0%,0%,0%);stroke-opacity:1;stroke-miterlimit:10;" d="M 244.328125 126.03125 L 253.265625 132.335938 "/>
<path style="fill:none;stroke-width:1.2;stroke-linecap:butt;stroke-linejoin:miter;stroke:rgb(100%,0%,0%);stroke-opacity:1;stroke-miterlimit:10;" d="M 253.265625 132.335938 L 262.203125 138.636719 "/>
<path style="fill:none;stroke-width:1.2;stroke-linecap:butt;stroke-linejoin:miter;stroke:rgb(0%,0%,0%);stroke-opacity:1;stroke-miterlimit:10;" d="M 242.84375 128.132812 L 244.824219 106.351562 "/>
<path style=" stroke:none;fill-rule:nonzero;fill:rgb(100%,100%,100%);fill-opacity:1;" d="M 256.71875 135.242188 L 264.71875 135.242188 L 264.71875 146.242188 L 256.71875 146.242188 Z M 256.71875 135.242188 "/>
<g style="fill:rgb(100%,0%,0%);fill-opacity:1;">
  <use xlink:href="#glyph0-1" x="256.71875" y="143.905273"/>
</g>
</g>
</svg>

<svg xmlns="http://www.w3.org/2000/svg" xmlns:xlink="http://www.w3.org/1999/xlink" width="300pt" height="300pt" viewBox="0 0 300 300"><defs><symbol overflow="visible"><path d="M.453 1.594v-7.938h4.5v7.938zm.5-.5h3.5v-6.938h-3.5zm0 0"/></symbol><symbol overflow="visible" id="a"><path d="M3.547-5.953c-.65 0-1.164.242-1.547.72-.375.48-.563 1.13-.563 1.952 0 .835.188 1.49.563 1.967.383.48.898.72 1.547.72.644 0 1.156-.24 1.53-.72.376-.476.564-1.132.564-1.968 0-.822-.187-1.474-.562-1.954-.375-.477-.887-.72-1.53-.72zm0-.734c.914 0 1.648.312 2.203.937.55.617.828 1.438.828 2.47 0 1.042-.277 1.87-.828 2.483-.555.617-1.29.922-2.203.922-.93 0-1.668-.305-2.22-.922C.774-1.41.5-2.237.5-3.28c0-1.033.273-1.853.828-2.47.55-.625 1.29-.938 2.22-.938zm0 0"/></symbol></defs><g><path fill="#fff" d="M0 0h300v300H0z"/><path d="M35.25 138.207l21.87-.31M59.367 139.156l5.336-9.547" stroke-width="1.2" stroke="#000" stroke-miterlimit="10" fill="none"/><path d="M64.703 129.61l5.336-9.548" stroke-width="1.2" stroke="#f00" stroke-miterlimit="10" fill="none"/><path d="M54.875 136.645l5.336-9.547" stroke-width="1.2" stroke="#000" stroke-miterlimit="10" fill="none"/><path d="M60.21 127.098l5.333-9.547" stroke-width="1.2" stroke="#f00" stroke-miterlimit="10" fill="none"/><path d="M57.12 137.898l5.603 9.395" stroke-width="1.2" stroke="#000" stroke-miterlimit="10" fill="none"/><path d="M62.723 147.293l5.6 9.394" stroke-width="1.2" stroke="#f00" stroke-miterlimit="10" fill="none"/><path d="M63.793 113.305h8v11h-8zm0 0" fill="#fff"/><use xlink:href="#a" x="63.793" y="121.968" fill="#f00"/><path d="M90.195 156.383l-21.925-3.555.105 7.72zm0 0"/><path d="M64.324 151.188h8v11h-8zm0 0" fill="#fff"/><use xlink:href="#a" x="64.324" y="159.851" fill="#f00"/><path d="M90.195 156.383l10.668-19.098M101.395 175.168l-11.2-18.785M100.863 137.285l21.87-.305" stroke-width="1.2" stroke="#000" stroke-miterlimit="10" fill="none"/><path d="M133.938 155.766l-7.887-20.762-6.632 3.953zm0 0"/><path d="M133.938 155.766l21.87-.305M123.266 174.863l10.67-19.097" stroke-width="1.2" stroke="#000" stroke-miterlimit="10" fill="none"/><path d="M155.81 155.46l14.038-17.21-6.74-3.766zm0 0"/><path d="M167.008 174.246l-11.2-18.785M166.477 136.367l21.87-.308M188.348 136.06l11.203 18.788M199.55 154.848l-10.67 19.093" stroke-width="1.2" stroke="#000" stroke-miterlimit="10" fill="none"/><path d="M199.55 154.848m1.555-2.567l-.972-.378m2.527-2.187l-1.945-.754m3.496-1.812l-2.913-1.128m4.47-1.438l-3.888-1.508m5.44-1.058l-4.86-1.883m6.415-.684l-5.832-2.262m7.387-.305l-6.805-2.637m7.434 1.602l-7.2-2.79" stroke="#000" stroke-miterlimit="10" fill="none"/><path d="M221.008 159.094l-21.457-4.246M188.88 173.94l-21.872.306" stroke-width="1.2" stroke="#000" stroke-miterlimit="10" fill="none"/><path d="M188.88 173.94m1.624 2.525l.766-.71m.86 3.23l1.53-1.42m.094 3.943l2.297-2.125m-.67 4.644l3.06-2.832m-1.436 5.356l3.828-3.542m-2.203 6.062l4.59-4.25m-2.966 6.774l5.355-4.96m-4.7 5.98l5.664-5.247M167.008 174.246m-1.895 2.328l.91.508m-2.808 1.816l1.82 1.016m-3.715 1.31l2.73 1.522m-4.624.8l3.64 2.036m-5.54.29l4.552 2.542m-6.445-.22l5.46 3.052m-7.36-.726l6.372 3.562m-7.136-2.62l6.737 3.765" stroke="#000" stroke-miterlimit="10" fill="none"/><path d="M156.34 193.344l-21.87.304M134.47 193.648l-11.204-18.785M123.266 174.863l-21.87.305M121.008 169.746l-17.496.246M203.742 189.988l19.856-9.175M223.598 180.813l-2.59-21.72" stroke-width="1.2" stroke="#000" stroke-miterlimit="10" fill="none"/><path d="M221.008 159.094l21.926 3.554-.11-7.722zm0 0"/><path d="M221.008 159.094l.988-10.89" stroke-width="1.2" stroke="#000" stroke-miterlimit="10" fill="none"/><path d="M221.996 148.203l.992-10.894" stroke-width="1.2" stroke="#f00" stroke-miterlimit="10" fill="none"/><path d="M242.88 158.785l21.87-.305M245.137 163.902l17.5-.246M244.992 153.61l17.5-.247" stroke-width="1.2" stroke="#000" stroke-miterlimit="10" fill="none"/><path d="M222.988 137.31l9.93-4.587" stroke-width="1.2" stroke="#f00" stroke-miterlimit="10" fill="none"/><path d="M232.918 132.723l9.926-4.59" stroke-width="1.2" stroke="#000" stroke-miterlimit="10" fill="none"/><path d="M218.988 131.81h8v11h-8zm0 0" fill="#fff"/><use xlink:href="#a" x="218.988" y="140.472" fill="#f00"/><path d="M241.36 130.238l8.937 6.3" stroke-width="1.2" stroke="#000" stroke-miterlimit="10" fill="none"/><path d="M250.297 136.54l8.937 6.304" stroke-width="1.2" stroke="#f00" stroke-miterlimit="10" fill="none"/><path d="M244.328 126.03l8.938 6.306" stroke-width="1.2" stroke="#000" stroke-miterlimit="10" fill="none"/><path d="M253.266 132.336l8.937 6.3" stroke-width="1.2" stroke="#f00" stroke-miterlimit="10" fill="none"/><path d="M242.844 128.133l1.98-21.78" stroke-width="1.2" stroke="#000" stroke-miterlimit="10" fill="none"/><path d="M256.72 135.242h8v11h-8zm0 0" fill="#fff"/><use xlink:href="#a" x="256.719" y="143.905" fill="#f00"/></g></svg>
